X: 3372
T: Corimonies Rant.   a Strathspey.
C: D.D.
%R: strathspey
B: Niel Gow & Sons "Complete Repository" v.3 p.37 #2
Z: 2021 John Chambers <jc:trillian.mit.edu>
M: C|
L: 1/8
K: D
% - - - - - - - - - -
V: 1 staves=2
F |\
D/D/D A>F d>FA<B | D/D/D A>F TE>FGB |D/D/D AF dFAc | d>fe>g fd d :| (g | f)>ddf gefd | e/e/e fd g>e=ce |
f>ddf gefd | e//e//e3/ e/e/e fdd(g || f)>ddf g>ef>d | edfd g=ceg | f<ae<g ~d>efd | AFAg fd d |]
% - - - - - - - - - -
V: 2 clef=bass middle=d
z | d2d2 d2d2 | d2d2 A2G2 | F2E2 d2g2 | a2A2 d2d :| z | d'2d'2 c'2d'2 | c'2d'2 =c'2c'2 |
d'2d'2 c'2d'2 | a2a2 d2d2 || d'2d'2 c'2d'2 | d'2d'2 =c'2c'2 | d'2c'2 b2f2 | a2A2 d2d |]


